packages/swarm-icons/src/icons/large/Twitter.svg

<?xml version="1.0" encoding="UTF-8"?>
<svg width="28px" height="28px" viewBox="0 0 28 28" version="1.1" xmlns="http://www.w3.org/2000/svg" xmlns:xlink="http://www.w3.org/1999/xlink">
    <!-- Generator: Sketch 61.2 (89653) - https://sketch.com -->
    <title>28dp/Logo Twitter</title>
    <desc>Created with Sketch.</desc>
    <g id="28dp/Logo-Twitter" stroke="none" stroke-width="1" fill="none" fill-rule="evenodd">
        <path d="M9.16726691,24.6412565 C18.9783914,24.6412565 24.3469388,16.5052021 24.3469388,9.46158463 C24.3469388,9.23269308 24.3469388,9.00380152 24.3365346,8.77490996 C25.3769508,8.02581032 26.2821128,7.07903161 27,6.00740296 C26.0428171,6.43397359 25.0128051,6.71488595 23.9307723,6.85014006 C25.0336134,6.19467787 25.8763505,5.14385754 26.2821128,3.89535814 C25.2521008,4.50920368 24.1076431,4.94617847 22.8903561,5.18547419 C21.9123649,4.14505802 20.5286114,3.5 18.9991997,3.5 C16.0548219,3.5 13.6618647,5.89295718 13.6618647,8.83733493 C13.6618647,9.2535014 13.7138856,9.65926371 13.7971188,10.0546218 C9.36494598,9.83613445 5.43217287,7.70328131 2.79991997,4.4779912 C2.34213685,5.26870748 2.08203281,6.18427371 2.08203281,7.16226491 C2.08203281,9.01420568 3.02881152,10.6476591 4.45418167,11.6048419 C3.58023209,11.5736295 2.75830332,11.3343337 2.04041617,10.9389756 C2.04041617,10.9597839 2.04041617,10.9805922 2.04041617,11.0118047 C2.04041617,13.5920368 3.88195278,15.7561024 6.31652661,16.245098 C5.86914766,16.369948 5.40096038,16.4323729 4.91196479,16.4323729 C4.56862745,16.4323729 4.23569428,16.4011605 3.91316527,16.3387355 C4.58943577,18.4611845 6.56622649,20.0010004 8.8967587,20.042617 C7.06562625,21.4783914 4.76630652,22.3315326 2.26930772,22.3315326 C1.84273709,22.3315326 1.41616647,22.3107243 1,22.2587035 C3.35134054,23.7569028 6.16046419,24.6412565 9.16726691,24.6412565" id="Color" fill="#212121" fill-rule="nonzero"></path>
    </g>
</svg>

<svg width="28" height="28" xmlns="http://www.w3.org/2000/svg"><path d="M9.167 24.641c9.811 0 15.18-8.136 15.18-15.18 0-.228 0-.457-.01-.686A10.869 10.869 0 0027 6.007c-.957.427-1.987.708-3.07.843a5.368 5.368 0 002.352-2.955 10.612 10.612 0 01-3.392 1.29A5.325 5.325 0 0019 3.5a5.342 5.342 0 00-5.338 5.337c0 .417.052.822.135 1.218C9.365 9.836 5.432 7.703 2.8 4.478a5.336 5.336 0 00-.718 2.684 5.35 5.35 0 002.372 4.443 5.396 5.396 0 01-2.414-.666v.073a5.346 5.346 0 004.277 5.233 5.201 5.201 0 01-1.405.187c-.343 0-.676-.03-.999-.093a5.335 5.335 0 004.984 3.704 10.7 10.7 0 01-6.628 2.289c-.426 0-.853-.021-1.269-.073a15.176 15.176 0 008.167 2.382" fill="#212121" fill-rule="nonzero"/></svg>
